SVG_Azure_Grouped/Application/Function App.svg

<?xml version="1.0" encoding="UTF-8" standalone="no"?>
<!-- Generated by Microsoft Visio, SVG Export Function App.svg Page-1 -->

<svg
   xmlns:dc="http://purl.org/dc/elements/1.1/"
   xmlns:cc="http://creativecommons.org/ns#"
   xmlns:rdf="http://www.w3.org/1999/02/22-rdf-syntax-ns#"
   xmlns:svg="http://www.w3.org/2000/svg"
   xmlns="http://www.w3.org/2000/svg"
   xmlns:sodipodi="http://sodipodi.sourceforge.net/DTD/sodipodi-0.dtd"
   xmlns:inkscape="http://www.inkscape.org/namespaces/inkscape"
   width="0.78748626in"
   height="0.69437361in"
   viewBox="0 0 56.698919 49.994884"
   xml:space="preserve"
   class="st4"
   version="1.1"
   id="svg51"
   sodipodi:docname="Function App.svg"
   style="font-size:12px;overflow:visible;color-interpolation-filters:sRGB;fill:none;fill-rule:evenodd;stroke-linecap:square;stroke-miterlimit:3"
   inkscape:version="0.92.5 (2060ec1f9f, 2020-04-08)"><metadata
   id="metadata55"><rdf:RDF><cc:Work
       rdf:about=""><dc:format>image/svg+xml</dc:format><dc:type
         rdf:resource="http://purl.org/dc/dcmitype/StillImage" /></cc:Work></rdf:RDF></metadata><sodipodi:namedview
   pagecolor="#ffffff"
   bordercolor="#666666"
   borderopacity="1"
   objecttolerance="10"
   gridtolerance="10"
   guidetolerance="10"
   inkscape:pageopacity="0"
   inkscape:pageshadow="2"
   inkscape:window-width="640"
   inkscape:window-height="480"
   id="namedview53"
   showgrid="false"
   inkscape:zoom="1.4869072"
   inkscape:cx="37.794336"
   inkscape:cy="32.639592"
   inkscape:window-x="0"
   inkscape:window-y="0"
   inkscape:window-maximized="0"
   inkscape:current-layer="svg51" />
	<style
   type="text/css"
   id="style2">
	<![CDATA[
		.st1 {fill:#50e6ff;stroke:none;stroke-linecap:butt;stroke-width:34}
		.st2 {fill:#1490df;stroke:none;stroke-linecap:butt;stroke-width:34}
		.st3 {fill:url(#grad0-14);stroke:none;stroke-linecap:butt;stroke-width:34}
		.st4 {fill:none;fill-rule:evenodd;font-size:12px;overflow:visible;stroke-linecap:square;stroke-miterlimit:3}
	]]>
	</style>

	<defs
   id="Patterns_And_Gradients">
		<linearGradient
   id="grad0-14"
   x1="0"
   y1="51.212077"
   x2="37.641015"
   y2="51.212077"
   gradientTransform="scale(0.75289733,1.3282023)"
   gradientUnits="userSpaceOnUse">
			<stop
   offset="0"
   stop-color="#fea11b"
   stop-opacity="1"
   id="stop4" />
			<stop
   offset="0.285"
   stop-color="#fea51a"
   stop-opacity="1"
   id="stop6" />
			<stop
   offset="0.545"
   stop-color="#feb018"
   stop-opacity="1"
   id="stop8" />
			<stop
   offset="0.8"
   stop-color="#ffc314"
   stop-opacity="1"
   id="stop10" />
			<stop
   offset="1"
   stop-color="#ffd70f"
   stop-opacity="1"
   id="stop12" />
		</linearGradient>
	</defs>
	<g
   id="g49"
   transform="translate(-34.000838,-34.0043)">
		<title
   id="title16">Page-1</title>
		<g
   id="group13873-1"
   transform="translate(34,-34.0157)">
			<title
   id="title18">Function App.13873</title>
			<g
   id="group13874-2">
				<title
   id="title20">Sheet.13874</title>
				<g
   id="shape13875-3"
   transform="translate(0.00843084,-11.0299)">
					<title
   id="title22">Sheet.13875</title>
					<path
   d="m 17.16,116.92 -1.89,1.88 a 0.94473,0.939085 0 0 1 -1.25964,0 L 0.47,105.34 a 1.91465,1.90321 0 0 1 0,-2.5 l 1.58,-1.88 15.11,15.02 a 0.592031,0.588493 0 0 1 0,0.93909 z"
   class="st1"
   id="path24"
   inkscape:connector-curvature="0"
   style="fill:#50e6ff;stroke:none;stroke-width:34;stroke-linecap:butt" />
				</g>
				<g
   id="shape13876-5"
   transform="translate(0,-23.1641)">
					<title
   id="title27">Sheet.13876</title>
					<path
   d="m 14.97,101.51 1.89,1.88 a 0.94473,0.939085 0 0 1 0,1.25211 L 2.37,119.04 0.48,117.16 a 1.88946,1.87817 0 0 1 0,-2.5 L 14.02,101.2 a 1.15572,1.14881 0 0 1 0.95,0.31 z"
   class="st2"
   id="path29"
   inkscape:connector-curvature="0"
   style="fill:#1490df;stroke:none;stroke-width:34;stroke-linecap:butt" />
				</g>
				<g
   id="shape13877-7"
   transform="translate(38.9745,-10.7169)">
					<title
   id="title32">Sheet.13877</title>
					<path
   d="m 15.36,100.64 1.89,1.88 a 1.91465,1.90321 0 0 1 0,2.51 L 3.39,118.8 a 0.94473,0.939085 0 0 1 -1.25964,0 L 0.24,116.92 a 0.94473,0.939085 0 0 1 0,-1.25211 z"
   class="st1"
   id="path34"
   inkscape:connector-curvature="0"
   style="fill:#50e6ff;stroke:none;stroke-width:34;stroke-linecap:butt" />
				</g>
				<g
   id="shape13878-9"
   transform="translate(38.9745,-23.1641)">
					<title
   id="title37">Sheet.13878</title>
					<path
   d="m 16.93,117.16 -1.89,1.88 -14.8,-14.71 a 0.94473,0.939085 0 0 1 0,-1.25211 L 2.13,101.2 a 0.94473,0.939085 0 0 1 1.25964,0 L 16.93,114.66 a 1.88946,1.87817 0 0 1 0,2.5 z"
   class="st2"
   id="path39"
   inkscape:connector-curvature="0"
   style="fill:#1490df;stroke:none;stroke-width:34;stroke-linecap:butt" />
				</g>
				<g
   id="shape13879-11"
   transform="translate(14.0223)">
					<title
   id="title42">Sheet.13879</title>
					<path
   d="M 11.97,95.88 H 0.63 A 0.677056,0.673011 0 0 1 1.8e-4,95.253943 L 0,94.94 13.54,68.33 c 0.32,0 0.32,-0.31 0.63,-0.31 H 27.4 a 0.677056,0.673011 0 0 1 0.62982,0.626057 L 28.03,68.95 12.28,89.93 h 15.43 a 0.677056,0.673011 0 0 1 0.62982,0.626057 0.31491,0.313028 0 0 1 -0.31491,0.313028 L 2.2,117.47 c -0.31,0 -1.89,1.57 -1.26,-0.62 z"
   class="st3"
   id="path44"
   inkscape:connector-curvature="0"
   style="fill:url(#grad0-14);stroke:none;stroke-width:34;stroke-linecap:butt" />
				</g>
			</g>
		</g>
	</g>
</svg>

<?xml version="1.0" encoding="UTF-8" standalone="no"?>
<!DOCTYPE svg PUBLIC "-//W3C//DTD SVG 1.1//EN" "http://www.w3.org/Graphics/SVG/1.1/DTD/svg11.dtd">
<!-- Generated by Microsoft Visio, SVG Export Function App.svg Page-1 -->
<svg xmlns="http://www.w3.org/2000/svg" xmlns:xlink="http://www.w3.org/1999/xlink" xmlns:ev="http://www.w3.org/2001/xml-events"
		width="1.73185in" height="1.65332in" viewBox="0 0 124.693 119.039" xml:space="preserve" color-interpolation-filters="sRGB"
		class="st4">
	<style type="text/css">
	<![CDATA[
		.st1 {fill:#50e6ff;stroke:none;stroke-linecap:butt;stroke-width:34}
		.st2 {fill:#1490df;stroke:none;stroke-linecap:butt;stroke-width:34}
		.st3 {fill:url(#grad0-14);stroke:none;stroke-linecap:butt;stroke-width:34}
		.st4 {fill:none;fill-rule:evenodd;font-size:12px;overflow:visible;stroke-linecap:square;stroke-miterlimit:3}
	]]>
	</style>

	<defs id="Patterns_And_Gradients">
		<linearGradient id="grad0-14" x1="0" y1="0" x2="1" y2="0" gradientTransform="rotate(-90 0.5 0.5)">
			<stop offset="0" stop-color="#fea11b" stop-opacity="1"/>
			<stop offset="0.285" stop-color="#fea51a" stop-opacity="1"/>
			<stop offset="0.545" stop-color="#feb018" stop-opacity="1"/>
			<stop offset="0.8" stop-color="#ffc314" stop-opacity="1"/>
			<stop offset="1" stop-color="#ffd70f" stop-opacity="1"/>
		</linearGradient>
	</defs>
	<g>
		<title>Page-1</title>
		<g id="group13526-1" transform="translate(34,-34.0157)">
			<title>Function App.13526</title>
			<g id="group13527-2">
				<title>Sheet.13527</title>
				<g id="shape13528-3" transform="translate(0.00843084,-11.0299)">
					<title>Sheet.13528</title>
					<path d="M17.16 116.92 L15.27 118.8 a0.94473 0.939085 0 0 1 -1.25964 0 L0.47 105.34 A1.91465 1.90321 0 0 1 0.47
								 102.84 L2.05 100.96 L17.16 115.98 a0.592031 0.588493 0 0 1 7.10543E-15 0.939085 Z" class="st1"/>
				</g>
				<g id="shape13529-5" transform="translate(0,-23.1641)">
					<title>Sheet.13529</title>
					<path d="M14.97 101.51 L16.86 103.39 a0.94473 0.939085 0 0 1 -1.77636E-14 1.25211 L2.37 119.04 L0.48 117.16 A1.88946
								 1.87817 0 0 1 0.48 114.66 L14.02 101.2 A1.15572 1.14881 0 0 1 14.97 101.51 Z" class="st2"/>
				</g>
				<g id="shape13530-7" transform="translate(38.9745,-10.7169)">
					<title>Sheet.13530</title>
					<path d="M15.36 100.64 L17.25 102.52 A1.91465 1.90321 0 0 1 17.25 105.03 L3.39 118.8 a0.94473 0.939085 0 0 1
								 -1.25964 0 L0.24 116.92 a0.94473 0.939085 0 0 1 -8.88178E-15 -1.25211 L15.36 100.64 Z" class="st1"/>
				</g>
				<g id="shape13531-9" transform="translate(38.9745,-23.1641)">
					<title>Sheet.13531</title>
					<path d="M16.93 117.16 L15.04 119.04 L0.24 104.33 a0.94473 0.939085 0 0 1 -1.77636E-15 -1.25211 L2.13 101.2 a0.94473
								 0.939085 0 0 1 1.25964 -2.84217E-14 L16.93 114.66 A1.88946 1.87817 0 0 1 16.93 117.16 Z"
							class="st2"/>
				</g>
				<g id="shape13532-11" transform="translate(14.0223,0)">
					<title>Sheet.13532</title>
					<path d="M11.97 95.88 L0.63 95.88 a0.677056 0.673011 0 0 1 -0.62982 -0.626057 L0 94.94 L13.54 68.33 C13.86 68.33
								 13.86 68.02 14.17 68.02 L27.4 68.02 a0.677056 0.673011 0 0 1 0.62982 0.626057 L28.03 68.95 L12.28
								 89.93 L27.71 89.93 a0.677056 0.673011 0 0 1 0.62982 0.626057 a0.31491 0.313028 0 0 1 -0.31491 0.313028
								 L2.2 117.47 C1.89 117.47 0.31 119.04 0.94 116.85 L11.97 95.88 Z" class="st3"/>
				</g>
			</g>
		</g>
	</g>
</svg>
